assets/svg/new-arrival-o.svg

<?xml version="1.0" encoding="UTF-8"?>
<svg width="1000px" height="1000px" viewBox="0 0 1000 1000" version="1.1" xmlns="http://www.w3.org/2000/svg" xmlns:xlink="http://www.w3.org/1999/xlink">
    <!-- Generator: sketchtool 52.4 (67378) - http://www.bohemiancoding.com/sketch -->
    <title>new-arrival-o</title>
    <desc>Created with sketchtool.</desc>
    <g id="新版图标" stroke="none" stroke-width="1" fill="none" fill-rule="evenodd">
        <g id="new-arrival-o" fill="#323233" fill-rule="nonzero">
            <g id="圆角-新品-线">
                <path d="M222.222222,111.111111 L222.222222,888.632709 L448.73221,770.828906 C480.867599,754.115863 519.132401,754.115863 551.26779,770.828906 L777.777778,888.632709 L777.777778,111.111111 L222.222222,111.111111 Z M222.222222,55.5555556 L777.777778,55.5555556 C808.460264,55.5555556 833.333333,80.428625 833.333333,111.111111 L833.333333,888.632709 C833.333333,919.315195 808.460264,944.188264 777.777778,944.188264 C768.853791,944.188264 760.061127,942.038491 752.143883,937.920873 L525.633895,820.11707 C509.566201,811.760549 490.433799,811.760549 474.366105,820.11707 L247.856117,937.920873 C220.635016,952.078083 187.091267,941.487706 172.934058,914.266604 C168.81644,906.349359 166.666667,897.556695 166.666667,888.632709 L166.666667,111.111111 C166.666667,80.428625 191.539736,55.5555556 222.222222,55.5555556 Z M609.559367,168.230913 L623.726033,194.342024 C600.114922,202.119801 574.003811,206.842024 545.3927,208.50869 L545.3927,251.564246 L629.559367,251.564246 L629.559367,279.064246 L604.003811,279.064246 L604.003811,423.786468 L575.3927,423.786468 L575.3927,279.064246 L545.3927,279.064246 L545.3927,305.453135 C544.003811,354.619801 533.170478,393.786468 512.8927,423.230913 L492.059367,401.286468 C507.614922,378.230913 516.226033,346.286468 517.337144,305.453135 L517.337144,184.897579 C551.781589,184.342024 582.337144,178.786468 609.559367,168.230913 Z M377.614922,187.675357 L425.670478,187.675357 C422.337144,180.730913 418.726033,174.342024 414.837144,168.50869 L444.837144,163.50869 C448.170478,170.730913 451.226033,178.786468 454.559367,187.675357 L505.114922,187.675357 L505.114922,214.342024 L377.614922,214.342024 L377.614922,187.675357 Z M374.837144,250.730913 L403.170478,250.730913 C399.837144,241.564246 395.948256,232.953135 391.503811,225.175357 L417.059367,215.453135 C421.226033,225.453135 425.114922,237.119801 429.003811,250.730913 L453.448256,250.730913 C457.614922,239.342024 461.226033,227.675357 464.281589,215.453135 L490.114922,224.619801 C486.781589,234.064246 483.448256,242.675357 479.837144,250.730913 L506.781589,250.730913 L506.781589,277.119801 L456.503811,277.119801 L456.503811,299.619801 L502.059367,299.619801 L502.059367,326.00869 L456.503811,326.00869 L456.503811,398.786468 C456.503811,416.00869 446.781589,424.619801 427.614922,424.619801 L413.170478,424.619801 L406.781589,397.953135 C410.948256,399.064246 414.837144,399.897579 418.170478,399.897579 C424.281589,399.897579 427.614922,397.119801 427.614922,391.842024 L427.614922,326.00869 L379.281589,326.00869 L379.281589,299.619801 L427.614922,299.619801 L427.614922,277.119801 L374.837144,277.119801 L374.837144,250.730913 Z M394.837144,336.842024 L420.948256,342.397579 C414.559367,370.730913 405.670478,395.175357 394.003811,416.00869 L369.837144,400.730913 C381.781589,380.730913 390.114922,359.342024 394.837144,336.842024 Z M484.837144,335.175357 C491.503811,352.397579 497.059367,368.230913 500.948256,382.675357 L476.503811,392.119801 C472.337144,374.897579 467.059367,357.953135 460.948256,341.564246 L484.837144,335.175357 Z M420.948256,480.730913 L580.670478,480.730913 L580.670478,579.897579 L420.948256,579.897579 L420.948256,480.730913 Z M551.503811,552.675357 L551.503811,507.953135 L450.114922,507.953135 L450.114922,552.675357 L551.503811,552.675357 Z M488.170478,598.230913 L488.170478,724.897579 L460.114922,724.897579 L460.114922,711.842024 L411.781589,711.842024 L411.781589,724.897579 L383.448256,724.897579 L383.448256,598.230913 L488.170478,598.230913 Z M411.781589,684.897579 L460.114922,684.897579 L460.114922,625.453135 L411.781589,625.453135 L411.781589,684.897579 Z M617.8927,598.230913 L617.8927,724.897579 L589.003811,724.897579 L589.003811,711.842024 L538.170478,711.842024 L538.170478,724.897579 L509.837144,724.897579 L509.837144,598.230913 L617.8927,598.230913 Z M538.170478,684.897579 L589.003811,684.897579 L589.003811,625.453135 L538.170478,625.453135 L538.170478,684.897579 Z" id="Rectangle-18"></path>
            </g>
        </g>
    </g>
</svg>

<svg width="1000" height="1000" xmlns="http://www.w3.org/2000/svg"><path d="M222.222 111.111v777.522l226.51-117.804a111.111 111.111 0 0 1 102.536 0l226.51 117.804V111.11H222.222zm0-55.555h555.556c30.682 0 55.555 24.873 55.555 55.555v777.522c0 30.682-24.873 55.555-55.555 55.555a55.556 55.556 0 0 1-25.634-6.267l-226.51-117.804a55.556 55.556 0 0 0-51.268 0l-226.51 117.804c-27.221 14.157-60.765 3.567-74.922-23.654a55.556 55.556 0 0 1-6.267-25.634V111.11c0-30.682 24.873-55.555 55.555-55.555zM609.56 168.23l14.167 26.111c-23.611 7.778-49.722 12.5-78.333 14.167v43.055h84.166v27.5h-25.555v144.722h-28.611V279.064h-30v26.39c-1.39 49.166-12.223 88.332-32.5 117.777l-20.834-21.945c15.556-23.055 24.167-55 25.278-95.833V184.898c34.445-.556 65-6.112 92.222-16.667zm-231.944 19.444h48.055c-3.333-6.944-6.944-13.333-10.833-19.166l30-5c3.333 7.222 6.389 15.277 9.722 24.166h50.556v26.667h-127.5v-26.667zm-2.778 63.056h28.333c-3.333-9.167-7.222-17.778-11.666-25.556l25.555-9.722c4.167 10 8.056 21.667 11.945 35.278h24.444a347.6 347.6 0 0 0 10.834-35.278l25.833 9.167c-3.333 9.444-6.667 18.055-10.278 26.11h26.945v26.39h-50.278v22.5h45.555v26.389h-45.555v72.777c0 17.223-9.722 25.834-28.89 25.834H413.17l-6.388-26.667c4.166 1.111 8.055 1.945 11.388 1.945 6.112 0 9.445-2.778 9.445-8.056v-65.833h-48.333v-26.39h48.333v-22.5h-52.778v-26.388zm20 86.111l26.111 5.556c-6.389 28.333-15.278 52.777-26.944 73.61l-24.167-15.277c11.945-20 20.278-41.389 25-63.889zm90-1.667c6.667 17.223 12.222 33.056 16.111 47.5l-24.444 9.445c-4.167-17.222-9.445-34.167-15.556-50.556l23.89-6.389zm-63.889 145.556H580.67v99.167H420.948V480.73zm130.556 71.944v-44.722h-101.39v44.722h101.39zm-63.334 45.556v126.667h-28.055v-13.056h-48.333v13.056h-28.334V598.23H488.17zm-76.388 86.667h48.333v-59.445h-48.333v59.445zm206.11-86.667v126.667h-28.888v-13.056H538.17v13.056h-28.333V598.23h108.056zm-79.722 86.667h50.834v-59.445H538.17v59.445z" fill="#323233" fill-rule="nonzero"/></svg>
